X:33
T:A que por gran fremosura (Cantiga 384)
C:Las Cantigas de Santa Maria, 1252
C:Alphonso X, El Sabio, (1221-1284)
R:Cantigas
Z:Transcrit et/ou corrigé par B@D - 2007-08-23
Z:Pour toute observation mailto:-@-
M:3/2
L:1/4
K:C
G>AF G2A | BcB BA2 | A>AG F2G | A2F D2D |
G>AF G2A | BcB BA2 | A>AG F2G | (3BAGF G2G |:
(3d/c/B/ AB/c/ BAG/F/ | G2A B2B | (3d/c/B/AB/c/ BAG/F/ | G2A G2G :|
G>AF G2A | BcB BA2 | AAG F2G | A/B/AF D2D |
G>AF G2A | BcB BA2 | A>AG F2G | (3BAGF G2G |]




%%header "$P0	 $IR 	$P1"
%%footer $D - Éditions Galouvielle - 2009 - À usage librement privé dans le cadre familial

